packages/sources/assets/src/assets/apple-pay.svg

<svg width="58" height="40" viewBox="0 0 58 40" fill="none" xmlns="http://www.w3.org/2000/svg">
<rect x="0.5" y="0.5" width="57" height="39" rx="3.5" fill="white" stroke="#F3F3F3"/>
<path fill-rule="evenodd" clip-rule="evenodd" d="M17.5771 14.9265C17.1553 15.4313 16.4803 15.8294 15.8053 15.7725C15.7209 15.09 16.0513 14.3649 16.4381 13.9171C16.8599 13.3981 17.5982 13.0284 18.1959 13C18.2662 13.7109 17.992 14.4076 17.5771 14.9265ZM18.1888 15.9076C17.5942 15.873 17.0516 16.0884 16.6133 16.2624C16.3313 16.3744 16.0924 16.4692 15.9107 16.4692C15.7068 16.4692 15.4581 16.3693 15.1789 16.2571C14.813 16.1102 14.3947 15.9422 13.956 15.9502C12.9506 15.9645 12.0154 16.5403 11.5021 17.4573C10.4474 19.2915 11.2279 22.0071 12.2474 23.5C12.7467 24.2393 13.3443 25.0498 14.1318 25.0213C14.4783 25.0081 14.7275 24.9012 14.9854 24.7905C15.2823 24.6631 15.5908 24.5308 16.0724 24.5308C16.5374 24.5308 16.8324 24.6597 17.1155 24.7834C17.3847 24.9011 17.6433 25.014 18.0271 25.0071C18.8428 24.9929 19.356 24.2678 19.8553 23.5284C20.394 22.7349 20.6307 21.9605 20.6667 21.843L20.6709 21.8294C20.67 21.8285 20.6634 21.8254 20.6516 21.82C20.4715 21.7366 19.095 21.0995 19.0818 19.391C19.0686 17.957 20.1736 17.2304 20.3476 17.116C20.3582 17.109 20.3653 17.1043 20.3685 17.1019C19.6654 16.0498 18.5685 15.936 18.1888 15.9076ZM23.8349 24.9289V13.846H27.9482C30.0717 13.846 31.5553 15.3246 31.5553 17.4858C31.5553 19.6469 30.0435 21.1398 27.892 21.1398H25.5365V24.9289H23.8349ZM25.5365 15.2962H27.4982C28.9748 15.2962 29.8185 16.0924 29.8185 17.4929C29.8185 18.8934 28.9748 19.6967 27.4912 19.6967H25.5365V15.2962ZM37.1732 23.5995C36.7232 24.4668 35.7318 25.0142 34.6631 25.0142C33.081 25.0142 31.9771 24.0616 31.9771 22.6256C31.9771 21.2038 33.0459 20.3863 35.0217 20.2654L37.1451 20.1374V19.5261C37.1451 18.6232 36.5615 18.1327 35.5209 18.1327C34.6631 18.1327 34.0373 18.5806 33.9107 19.263H32.3779C32.4271 17.827 33.7631 16.782 35.5701 16.782C37.5177 16.782 38.7834 17.8128 38.7834 19.4123V24.9289H37.2084V23.5995H37.1732ZM35.1201 23.6991C34.2131 23.6991 33.6365 23.2583 33.6365 22.5829C33.6365 21.8863 34.192 21.481 35.2537 21.4171L37.1451 21.2962V21.9218C37.1451 22.9597 36.2732 23.6991 35.1201 23.6991ZM44.0076 25.3626C43.3256 27.3033 42.5451 27.9431 40.8857 27.9431C40.7592 27.9431 40.3373 27.9289 40.2388 27.9005V26.5711C40.3443 26.5853 40.6045 26.5995 40.7381 26.5995C41.4904 26.5995 41.9123 26.2796 42.1724 25.4479L42.3271 24.9573L39.4443 16.8886H41.2232L43.2271 23.436H43.2623L45.2662 16.8886H46.9959L44.0076 25.3626Z" fill="black"/>
</svg>

<svg width="58" height="40" fill="none" xmlns="http://www.w3.org/2000/svg"><rect x=".5" y=".5" width="57" height="39" rx="3.5" fill="#fff" stroke="#F3F3F3"/><path fill-rule="evenodd" clip-rule="evenodd" d="M17.577 14.927c-.422.504-1.097.902-1.772.846-.084-.683.246-1.408.633-1.856.422-.519 1.16-.889 1.758-.917.07.71-.204 1.408-.619 1.927Zm.612.98c-.595-.034-1.137.181-1.576.355-.282.112-.52.207-.702.207-.204 0-.453-.1-.732-.212-.366-.147-.784-.315-1.223-.307-1.005.014-1.94.59-2.454 1.507-1.055 1.834-.274 4.55.745 6.043.5.74 1.097 1.55 1.885 1.521.346-.013.595-.12.853-.23.297-.128.606-.26 1.087-.26.465 0 .76.129 1.044.252.269.118.527.231.911.224.816-.014 1.329-.74 1.828-1.479a6.522 6.522 0 0 0 .812-1.685l.004-.014-.02-.009c-.18-.083-1.556-.72-1.57-2.429-.012-1.434 1.093-2.16 1.267-2.275a.608.608 0 0 0 .02-.014c-.703-1.052-1.8-1.166-2.18-1.194Zm5.646 9.022V13.846h4.113c2.124 0 3.607 1.479 3.607 3.64 0 2.16-1.511 3.654-3.663 3.654h-2.355v3.789h-1.702Zm1.701-9.633h1.962c1.477 0 2.32.796 2.32 2.197 0 1.4-.843 2.204-2.327 2.204h-1.954v-4.4ZM37.174 23.6c-.45.868-1.441 1.415-2.51 1.415-1.582 0-2.686-.952-2.686-2.388 0-1.422 1.069-2.24 3.045-2.36l2.123-.129v-.61c0-.904-.584-1.394-1.624-1.394-.858 0-1.484.448-1.61 1.13h-1.533c.05-1.436 1.385-2.481 3.192-2.481 1.948 0 3.213 1.03 3.213 2.63v5.517h-1.575V23.6h-.035Zm-2.053.1c-.907 0-1.483-.44-1.483-1.116 0-.697.555-1.102 1.617-1.166l1.891-.12v.625c0 1.038-.872 1.777-2.025 1.777Zm8.888 1.664c-.682 1.94-1.463 2.58-3.122 2.58-.127 0-.549-.014-.647-.043v-1.329c.105.014.366.028.5.028.751 0 1.173-.32 1.433-1.151l.155-.49-2.883-8.07h1.78l2.003 6.548h.035l2.004-6.547h1.73l-2.988 8.474Z" fill="#000"/></svg>
